images/illustrations/icons/mouse-globe.svg

<svg xmlns="http://www.w3.org/2000/svg" viewBox="-124 126 200 200" enable-background="new -124 126 200 200"><style type="text/css">.st0{fill:#00EFB7;} .st1{opacity:0.3;} .st2{fill:#585763;}</style><g id="XMLID_27_"><path id="XMLID_1509_" d="M26.3 246.3L16 236c-8.3-8.3-21.8-8.3-30.1 0s-8.3 21.8 0 30.1l10.2 10.2c4.1 4.2 9.6 6.2 15.1 6.2s10.9-2.1 15.1-6.2c8.3-8.2 8.3-21.7 0-30zM1 234.1c3.7 0 7.3 1.2 10.3 3.5L1 248l-10.3-10.3c3-2.4 6.6-3.6 10.3-3.6zm-13.4 6.6L-2.1 251l-10.3 10.3c-4.7-6-4.7-14.5 0-20.6zm35.6 32.6c-6.6 6.6-17.4 6.6-24 0l-8.7-8.7 24-24 8.7 8.7c6.6 6.6 6.6 17.4 0 24z" class="st0"/><g id="XMLID_977_" class="st1"><path id="XMLID_981_" d="M-3.8 276.4l-1.6-1.6c-1.5.6-3.1 1.1-4.7 1.5 1-1 2-2.1 2.9-3.3l-3.2-3.2c-3.4 4.5-7.3 7.4-11.5 8.1v-18.8c1 0 2.1 0 3.1-.1-.6-1.4-1-2.8-1.2-4.3-.6 0-1.3 0-1.9 0V228H1.6c0 .5 0 1.1-.1 1.6 1.5 0 2.9.2 4.3.6 0-.7.1-1.4.1-2.1H28c-.2 5.8-1.4 11.3-3.4 16.4l1.6 1.6c.6.6 1.2 1.2 1.7 1.9 2.9-6.8 4.5-14.3 4.5-22.1 0-31.1-25.3-56.5-56.5-56.5s-56.4 25.5-56.4 56.7 25.3 56.5 56.5 56.5c7.8 0 15.3-1.6 22.1-4.5-.7-.6-1.3-1.1-1.9-1.7zm26.1-74.3c3.4 6.6 5.5 14 5.8 21.8H6c-.2-9-1.4-17.5-3.5-24.9 6.6.9 13.2 2.1 19.7 3.7l.1-.6zm-2.7-4.5c-6.2-1.4-12.4-2.4-18.7-3.2-2.8-7.9-6.6-14.2-11.1-18.6 12.5 3.5 23 11.4 29.8 21.8zm-41.4-23.4c7.1 1.3 13.5 8.8 17.9 19.7-5.9-.6-11.9-.9-17.9-1v-18.7zm0 23.1c6.5.1 13 .5 19.5 1.2 2.4 7.5 3.8 16.2 4 25.5h-23.5v-26.7zm-16.1-21.5c-4.5 4.3-8.3 10.7-11.1 18.6-6.3.8-12.5 1.9-18.7 3.2 6.9-10.4 17.4-18.3 29.8-21.8zm-32.4 26.3l.1.5c6.5-1.6 13.1-2.8 19.7-3.7-2.1 7.4-3.4 15.8-3.5 24.9h-22.1c.3-7.7 2.4-15.1 5.8-21.7zm0 47.9c-3.4-6.6-5.5-14-5.8-21.8H-54c.2 9 1.4 17.5 3.5 24.9-6.6-.9-13.2-2.1-19.7-3.7l-.1.6zm2.6 4.5c6.2 1.4 12.4 2.4 18.7 3.2 2.8 7.9 6.6 14.2 11.1 18.6-12.4-3.4-22.9-11.3-29.8-21.8zm41.5 23.5c-7.1-1.3-13.5-8.8-17.9-19.7 5.9.6 11.9.9 17.9 1V278zm0-23.1c-6.5-.1-13-.5-19.5-1.2-2.4-7.5-3.8-16.2-4-25.5h23.5v26.7zm0-31h-23.5c.2-9.3 1.7-18 4-25.5 6.5-.7 13-1.1 19.5-1.2v26.7zm0-31c-6 .1-11.9.4-17.8 1 4.3-11 10.7-18.5 17.8-19.7v18.7z" class="st2"/></g></g></svg>

<?xml version="1.0" encoding="utf-8"?>
<!-- Generator: Adobe Illustrator 19.0.0, SVG Export Plug-In . SVG Version: 6.00 Build 0)  -->
<svg version="1.1" id="Calque_1" xmlns="http://www.w3.org/2000/svg" xmlns:xlink="http://www.w3.org/1999/xlink" x="0px" y="0px"
	 viewBox="-124 126 200 200" style="enable-background:new -124 126 200 200;" xml:space="preserve">
<style type="text/css">
	.st0{fill:#00EFB7;}
	.st1{opacity:0.3;}
	.st2{fill:#585763;}
</style>
<g id="XMLID_27_">
	<path id="XMLID_1509_" class="st0" d="M26.3,246.3L16,236c-8.3-8.3-21.8-8.3-30.1,0c-8.3,8.3-8.3,21.8,0,30.1l10.2,10.2
		c4.1,4.2,9.6,6.2,15.1,6.2s10.9-2.1,15.1-6.2C34.6,268.1,34.6,254.6,26.3,246.3z M1,234.1c3.7,0,7.3,1.2,10.3,3.5L1,248l-10.3-10.3
		C-6.3,235.3-2.7,234.1,1,234.1z M-12.4,240.7L-2.1,251l-10.3,10.3C-17.1,255.3-17.1,246.8-12.4,240.7z M23.2,273.3
		c-6.6,6.6-17.4,6.6-24,0l-8.7-8.7l24-24l8.7,8.7C29.8,255.9,29.8,266.7,23.2,273.3z"/>
	<g id="XMLID_977_" class="st1">
		<path id="XMLID_981_" class="st2" d="M-3.8,276.4l-1.6-1.6c-1.5,0.6-3.1,1.1-4.7,1.5c1-1,2-2.1,2.9-3.3l-3.2-3.2
			c-3.4,4.5-7.3,7.4-11.5,8.1v-18.8c1,0,2.1,0,3.1-0.1c-0.6-1.4-1-2.8-1.2-4.3c-0.6,0-1.3,0-1.9,0V228H1.6c0,0.5,0,1.1-0.1,1.6
			c1.5,0,2.9,0.2,4.3,0.6c0-0.7,0.1-1.4,0.1-2.1H28c-0.2,5.8-1.4,11.3-3.4,16.4l1.6,1.6c0.6,0.6,1.2,1.2,1.7,1.9
			c2.9-6.8,4.5-14.3,4.5-22.1c0-31.1-25.3-56.5-56.5-56.5s-56.4,25.5-56.4,56.7s25.3,56.5,56.5,56.5c7.8,0,15.3-1.6,22.1-4.5
			C-2.6,277.5-3.2,277-3.8,276.4z M22.3,202.1c3.4,6.6,5.5,14,5.8,21.8H6c-0.2-9-1.4-17.5-3.5-24.9c6.6,0.9,13.2,2.1,19.7,3.7
			L22.3,202.1z M19.6,197.6c-6.2-1.4-12.4-2.4-18.7-3.2c-2.8-7.9-6.6-14.2-11.1-18.6C2.3,179.3,12.8,187.2,19.6,197.6z M-21.8,174.2
			c7.1,1.3,13.5,8.8,17.9,19.7c-5.9-0.6-11.9-0.9-17.9-1V174.2z M-21.8,197.3c6.5,0.1,13,0.5,19.5,1.2c2.4,7.5,3.8,16.2,4,25.5
			h-23.5V197.3z M-37.9,175.8c-4.5,4.3-8.3,10.7-11.1,18.6c-6.3,0.8-12.5,1.9-18.7,3.2C-60.8,187.2-50.3,179.3-37.9,175.8z
			 M-70.3,202.1l0.1,0.5c6.5-1.6,13.1-2.8,19.7-3.7c-2.1,7.4-3.4,15.8-3.5,24.9h-22.1C-75.8,216.1-73.7,208.7-70.3,202.1z
			 M-70.3,250c-3.4-6.6-5.5-14-5.8-21.8H-54c0.2,9,1.4,17.5,3.5,24.9c-6.6-0.9-13.2-2.1-19.7-3.7L-70.3,250z M-67.7,254.5
			c6.2,1.4,12.4,2.4,18.7,3.2c2.8,7.9,6.6,14.2,11.1,18.6C-50.3,272.9-60.8,265-67.7,254.5z M-26.2,278c-7.1-1.3-13.5-8.8-17.9-19.7
			c5.9,0.6,11.9,0.9,17.9,1V278z M-26.2,254.9c-6.5-0.1-13-0.5-19.5-1.2c-2.4-7.5-3.8-16.2-4-25.5h23.5V254.9z M-26.2,223.9h-23.5
			c0.2-9.3,1.7-18,4-25.5c6.5-0.7,13-1.1,19.5-1.2V223.9z M-26.2,192.9c-6,0.1-11.9,0.4-17.8,1c4.3-11,10.7-18.5,17.8-19.7V192.9z"
			/>
	</g>
</g>
</svg>
